Catalina-dark/actions/16/document-import.svg

<?xml version="1.0" encoding="UTF-8" standalone="no"?>
<svg
   xmlns:dc="http://purl.org/dc/elements/1.1/"
   xmlns:cc="http://creativecommons.org/ns#"
   xmlns:rdf="http://www.w3.org/1999/02/22-rdf-syntax-ns#"
   xmlns:svg="http://www.w3.org/2000/svg"
   xmlns="http://www.w3.org/2000/svg"
   xmlns:sodipodi="http://sodipodi.sourceforge.net/DTD/sodipodi-0.dtd"
   xmlns:inkscape="http://www.inkscape.org/namespaces/inkscape"
   width="16"
   height="16"
   viewBox="0 0 16 16"
   version="1.1"
   id="svg7"
   sodipodi:docname="albumfolder-importimages.svg"
   inkscape:version="0.92.4 5da689c313, 2019-01-14">
  <metadata
     id="metadata11">
    <rdf:RDF>
      <cc:Work
         rdf:about="">
        <dc:format>image/svg+xml</dc:format>
        <dc:type
           rdf:resource="http://purl.org/dc/dcmitype/StillImage" />
      </cc:Work>
    </rdf:RDF>
  </metadata>
  <sodipodi:namedview
     pagecolor="#ffffff"
     bordercolor="#666666"
     borderopacity="1"
     objecttolerance="10"
     gridtolerance="10"
     guidetolerance="10"
     inkscape:pageopacity="0"
     inkscape:pageshadow="2"
     inkscape:window-width="715"
     inkscape:window-height="480"
     id="namedview9"
     showgrid="false"
     inkscape:zoom="14.75"
     inkscape:cx="-0.54237288"
     inkscape:cy="8"
     inkscape:window-x="0"
     inkscape:window-y="26"
     inkscape:window-maximized="0"
     inkscape:current-layer="svg7" />
  <defs
     id="defs3">
    <style
       id="current-color-scheme"
       type="text/css">
   .ColorScheme-Text { color:#5c616c; } .ColorScheme-Highlight { color:#5294e2; }
  </style>
  </defs>
  <path
     style="fill:#f1f6f8;fill-opacity:0.8509804"
     class="ColorScheme-Text"
     d="M 3 1.0097656 C 3 1.0097656 2 1.0097656 2 2.0097656 L 2 11.005859 L 2 14.009766 C 2 15.009766 3 15.009766 3 15.009766 L 13 15.009766 C 13 15.009766 14 15.009766 14 14.009766 L 14 10.005859 L 12 10.009766 L 12 13.009766 L 4 13.009766 L 4 3.0136719 L 12 3.0136719 L 12 6.0097656 L 14 6.0058594 L 14 2.0097656 C 14 1.0097656 13 1.0097656 13 1.0097656 L 3 1.0097656 z M 11 5.0078125 L 6.5 8.0078125 L 11 11.007812 L 11 9.0078125 L 15 9.0078125 L 15 7.0078125 L 11 7.0078125 L 11 5.0078125 z"
     id="path5" />
</svg>

<svg width="16" height="16" version="1.1" viewBox="0 0 16 16" xmlns="http://www.w3.org/2000/svg">
<defs>
<style id="current-color-scheme" type="text/css">.ColorScheme-Text { color:#5c616c; } .ColorScheme-Highlight { color:#5294e2; }</style>
</defs>
<path class="ColorScheme-Text" d="m3 1.0098s-1 0-1 1v8.9961 3.0039c0 1 1 1 1 1h10s1 0 1-1v-4.0039l-2 0.003907v3h-8v-9.9961h8v2.9961l2-0.0039062v-3.9961c0-1-1-1-1-1h-10zm8 3.998-4.5 3 4.5 3v-2h4v-2h-4v-2z" fill="#f1f6f8" fill-opacity=".85098"/>
</svg>
